X:70
T: Tribute to Larry Reynolds
C: Brendan Tonra
Z: B.Black
R: reel
M: 4/4
L: 1/8
K: Edor
Bd |: eBdB AGBG |GFED B,3 E |DFAF GBeB |dBGB A2 Bd |
egfg egdB |AFDF EDB,E |DFAF GBdB |AFDE FE E2 :|
Bdeg feee |beee fedB |ABde fefb |afdf efed |
|1 Beee feee |beee fedB |ABde fedB |AFDE FE E2 :|
|2 gafg egdB |AFFF DEFB |ABde fedB |AFDE FE E2 ||
